assets/img/braze_icons/shield-01.svg

<svg fill="none" height="24" viewBox="0 0 24 24" width="24" xmlns="http://www.w3.org/2000/svg"><path d="m12.2861 1.08843c-.1897-.02741-.3824-.02741-.5721 0-.2186.03159-.4221.10845-.5836.16947l-.0433.01632-5.49244 2.05952c-.61779.23065-1.16033.43321-1.57815.80143-.36552.32212-.64708.72841-.82035 1.18376-.19807.52051-.19723 1.09963-.19627 1.75907l.00013 4.9219c0 2.8266 1.53729 5.1832 3.19906 6.9144 1.6729 1.7428 3.58694 2.9737 4.59902 3.5642l.041.024c.1847.1085.4244.2492.7416.3173.2594.0556.5792.0556.8387 0 .3171-.0681.5568-.2088.7415-.3173l.041-.024c1.0121-.5905 2.9262-1.8214 4.5991-3.5642 1.6617-1.7312 3.199-4.0878 3.199-6.9144l.0002-4.92191c.0009-.65944.0017-1.23855-.1963-1.75906-.1733-.45535-.4549-.86164-.8204-1.18376-.4178-.36823-.9603-.57078-1.5781-.80143l-5.4925-2.05952-.0432-.01632c-.1616-.06102-.365-.13788-.5836-.16947z" fill="#801ed7"/></svg>

<svg width="24" height="24" viewBox="0 0 24 24" fill="none" xmlns="http://www.w3.org/2000/svg">
<path d="M12.2861 1.08843C12.0964 1.06102 11.9037 1.06102 11.714 1.08843C11.4954 1.12002 11.2919 1.19688 11.1304 1.2579L11.0871 1.27422L5.59466 3.33374C4.97687 3.56439 4.43433 3.76695 4.01651 4.13517C3.65099 4.45729 3.36943 4.86358 3.19616 5.31893C2.99809 5.83944 2.99893 6.41856 2.99989 7.078L3.00002 11.9999C3.00002 14.8265 4.53731 17.1831 6.19908 18.9143C7.87198 20.6571 9.78602 21.888 10.7981 22.4785L10.8391 22.5025C11.0238 22.611 11.2635 22.7517 11.5807 22.8198C11.8401 22.8754 12.1599 22.8754 12.4194 22.8198C12.7365 22.7517 12.9762 22.611 13.1609 22.5025L13.2019 22.4785C14.214 21.888 16.1281 20.6571 17.801 18.9143C19.4627 17.1831 21 14.8265 21 11.9999L21.0002 7.07799C21.0011 6.41855 21.0019 5.83944 20.8039 5.31893C20.6306 4.86358 20.349 4.45729 19.9835 4.13517C19.5657 3.76694 19.0232 3.56439 18.4054 3.33374L12.9129 1.27422L12.8697 1.2579C12.7081 1.19688 12.5047 1.12002 12.2861 1.08843Z" fill="#801ED7"/>
</svg>
